X: 37676
T: Snuff Wife, The
R: jig
M: 6/8
K: Amixolydian
d2c BGB|BGB BGB|d2c BGB|AAA c2A|
d2c BGB|BGB Bcd|e2d cBc|AAA c2A:|
Bcd dGd|Bcd dGd|cAc BGB|AAA c2A|
Bcd dGd|BBB Bcd|e2d cBc|1 AAA c2A:|2 AAA d2f||
ecA ecA|ecA e2e|fdf ece|dcd f2d|
ecA ecA|eee efg|agf gfe|dcd f2d:|
efg gfg|efg gfg|fdf ece|dcd f2d|
efg gfg|ece efg|agf gfe|1 dcd f2d:|2 dcd g2e||

